svgs/thin/gopuram.svg

<svg xmlns="http://www.w3.org/2000/svg" viewBox="0 0 512 512"><!--! Font Awesome Pro 6.0.0-alpha3 by @fontawesome - https://fontawesome.com License - https://fontawesome.com/license (Commercial License) --><path d="M320 432v72c0 4.418-3.582 8-8 8s-8-3.582-8-8l-.0002-72c0-8.837-7.163-16-16-16h-64c-8.837 0-16 7.163-16 16l.0002 72c0 4.418-3.582 8-8 8s-8-3.582-8-8V432c0-17.67 14.33-32 32-32h64C305.7 400 320 414.3 320 432zM16 504c0 4.418-3.582 8-7.1 8s-8-3.582-8-8V384c0-17.67 14.33-32 31.1-32l.0002-96c0-17.67 14.33-32 31.1-32V144c0-17.67 14.33-32 32-32V8c0-4.406 3.578-8 8-8s8 3.594 8 8v28.91C116.8 34.07 122 32 128 32h63.1l.0002-24c0-4.406 3.578-8 8-8s8 3.594 8 8V32h96V8c0-4.406 3.578-8 8-8s8 3.594 8 8L320 32h64c5.957 0 11.22 2.07 16 4.906V8c0-4.406 3.578-8 8-8s8 3.594 8 8V112c17.67 0 31.1 14.33 31.1 32V224c17.67 0 32 14.33 32 32l-.0002 96c17.67 0 32 14.33 32 32v120c0 4.418-3.582 8-7.1 8s-8-3.582-8-8V384c0-8.837-7.163-16-16-16h-63.1v136c0 4.418-3.582 8-8 8s-8-3.582-8-8V368h-288v136c0 4.418-3.582 8-8 8s-8-3.582-8-8V368H32c-8.837 0-16 7.163-16 16V504zM288 304c0-8.824-7.178-16-16-16h-32c-8.822 0-16 7.176-16 16L224 352h64L288 304zM384 240h-240V352h64.06L208 304c0-17.67 14.33-32 31.1-32h32c17.67 0 32 14.33 32 32L304 352h79.1L384 240zM288 192v32h48V128h-160v96h48V192c0-17.67 14.33-32 32-32S288 174.3 288 192zM256 176c-8.822 0-16 7.176-16 16L240 224h32l.0002-32C272 183.2 264.8 176 256 176zM400 240V352h63.1V256c0-8.824-7.178-16-16-16H400zM352 128l-.0001 96h80V144c0-8.824-7.178-16-16-16H352zM112 112h288V64c0-8.824-7.178-16-16-16h-256c-8.822 0-16 7.176-16 16V112zM80 224h79.1l.0001-96H96C87.18 128 80 135.2 80 144V224zM48 352h79.1l.0002-112h-64c-8.822 0-16 7.176-16 16V352z"/></svg>

<svg xmlns="http://www.w3.org/2000/svg" viewBox="0 0 512 512"><!-- Font Awesome Pro 6.0.0-alpha2 by @fontawesome - https://fontawesome.com License - https://fontawesome.com/license (Commercial License) --><path d="M320 432V504C320 508.418 316.418 512 312 512H312C307.582 512 304 508.418 304 504V432C304 423.163 296.837 416 288 416H224C215.163 416 208 423.163 208 432V504C208 508.418 204.418 512 200 512H200C195.582 512 192 508.418 192 504V432C192 414.327 206.327 400 224 400H288C305.673 400 320 414.327 320 432ZM16 504C16 508.418 12.418 512 8 512H8C3.582 512 0 508.418 0 504V384C0 366.328 14.326 352 32 352V256C32 238.328 46.326 224 64 224V144C64 126.328 78.326 112 96 112V8C96 3.594 99.578 0 104 0S112 3.594 112 8V36.906C116.777 34.07 122.043 32 128 32H192V8C192 3.594 195.578 0 200 0S208 3.594 208 8V32H304V8C304 3.594 307.578 0 312 0S320 3.594 320 8V32H384C389.957 32 395.223 34.07 400 36.906V8C400 3.594 403.578 0 408 0S416 3.594 416 8V112C433.674 112 448 126.328 448 144V224C465.674 224 480 238.328 480 256V352C497.674 352 512 366.328 512 384V504C512 508.418 508.418 512 504 512H504C499.582 512 496 508.418 496 504V384C496 375.163 488.837 368 480 368H416V504C416 508.418 412.418 512 408 512H408C403.582 512 400 508.418 400 504V368H112V504C112 508.418 108.418 512 104 512H104C99.582 512 96 508.418 96 504V368H32C23.163 368 16 375.163 16 384V504ZM288 304C288 295.176 280.822 288 272 288H240C231.178 288 224 295.176 224 304V352H288V304ZM384 240H144V352H208V304C208 286.328 222.326 272 240 272H272C289.674 272 304 286.328 304 304V352H384V240ZM288 192V224H336V128H176V224H224V192C224 174.328 238.326 160 256 160S288 174.328 288 192ZM256 176C247.178 176 240 183.176 240 192V224H272V192C272 183.176 264.822 176 256 176ZM400 240V352H464V256C464 247.176 456.822 240 448 240H400ZM352 128V224H432V144C432 135.176 424.822 128 416 128H352ZM112 112H400V64C400 55.176 392.822 48 384 48H128C119.178 48 112 55.176 112 64V112ZM80 224H160V128H96C87.178 128 80 135.176 80 144V224ZM48 352H128V240H64C55.178 240 48 247.176 48 256V352Z"/></svg>
